zag2/images/other/search.svg

<svg width="50" height="50" viewBox="0 0 50 50" fill="none" xmlns="http://www.w3.org/2000/svg">
<path d="M29.4922 0C18.1842 0 8.98444 9.19977 8.98444 20.5077C8.98444 24.7529 10.2811 28.7009 12.4991 31.9765L1.14062 43.3351C0.405077 44.0706 0 45.0516 0 46.0973C0 47.143 0.405077 48.1238 1.14052 48.8594C1.87597 49.5949 2.85692 50 3.90262 50C4.94832 50 5.92927 49.5949 6.66482 48.8595L18.0235 37.5008C21.2991 39.7188 25.2471 41.0155 29.4923 41.0155C40.8002 41.0155 50 31.8157 50 20.5077C50 9.19977 40.8002 0 29.4922 0ZM5.28367 47.4783C4.91707 47.8449 4.42664 48.0469 3.90262 48.0469C3.3786 48.0469 2.88817 47.845 2.52157 47.4783C2.15497 47.1117 1.95312 46.6212 1.95312 46.0973C1.95312 45.5733 2.15497 45.0828 2.52167 44.7162L10.9053 36.3325C11.7506 37.3251 12.6747 38.2493 13.6674 39.0946L5.28367 47.4783ZM15.0526 37.7095C14.0538 36.8709 13.1291 35.9461 12.2905 34.9474L13.6763 33.5616C14.5079 34.5683 15.432 35.4924 16.4384 36.3238L15.0526 37.7095ZM29.4922 39.0623C19.2612 39.0623 10.9376 30.7387 10.9376 20.5077C10.9376 10.2767 19.2612 1.95312 29.4922 1.95312C39.7232 1.95312 48.0468 10.2767 48.0468 20.5077C48.0468 30.7387 39.7233 39.0623 29.4922 39.0623Z" fill="#FF4900"/>
<path d="M22.2813 6.06495C22.0116 5.59786 21.4144 5.4379 20.9473 5.70752C19.2405 6.69287 17.729 7.95488 16.4548 9.45829C16.1061 9.86972 16.157 10.4859 16.5684 10.8348C16.752 10.9903 16.9762 11.0664 17.1993 11.0664C17.4764 11.0664 17.7517 10.9491 17.9448 10.7212C19.0734 9.38945 20.4122 8.27177 21.9239 7.39892C22.391 7.1293 22.5511 6.53194 22.2813 6.06495Z" fill="#FF4900"/>
<path d="M29.4922 25.3905C27.8768 25.3905 26.5625 26.7048 26.5625 28.3202C26.5625 29.9356 27.8768 31.2499 29.4922 31.2499C31.1076 31.2499 32.4219 29.9356 32.4219 28.3202C32.4219 26.7048 31.1076 25.3905 29.4922 25.3905ZM29.4922 29.2967C28.9537 29.2967 28.5156 28.8587 28.5156 28.3202C28.5156 27.7817 28.9537 27.3436 29.4922 27.3436C30.0307 27.3436 30.4687 27.7817 30.4687 28.3202C30.4687 28.8587 30.0307 29.2967 29.4922 29.2967Z" fill="#FF4900"/>
<path d="M29.4922 9.76556C27.8768 9.76556 26.5625 11.0798 26.5625 12.6952V20.5077C26.5625 22.1231 27.8768 23.4374 29.4922 23.4374C31.1076 23.4374 32.4219 22.1231 32.4219 20.5077V12.6952C32.4219 11.0798 31.1076 9.76556 29.4922 9.76556ZM30.4687 20.5077C30.4687 21.0462 30.0307 21.4843 29.4922 21.4843C28.9537 21.4843 28.5156 21.0462 28.5156 20.5077V12.6952C28.5156 12.1568 28.9537 11.7187 29.4922 11.7187C30.0307 11.7187 30.4687 12.1568 30.4687 12.6952V20.5077Z" fill="#FF4900"/>
</svg>

<svg width="50" height="50" fill="none" xmlns="http://www.w3.org/2000/svg"><path d="M29.492 0C18.184 0 8.984 9.2 8.984 20.508A20.39 20.39 0 0012.5 31.977L1.141 43.335A3.879 3.879 0 000 46.097a3.88 3.88 0 001.14 2.762A3.879 3.879 0 003.904 50a3.88 3.88 0 002.762-1.14L18.023 37.5a20.39 20.39 0 0011.47 3.516C40.8 41.016 50 31.816 50 20.508S40.8 0 29.492 0zM5.284 47.478a1.939 1.939 0 01-1.381.569 1.938 1.938 0 01-1.95-1.95c0-.524.202-1.014.569-1.38l8.383-8.384a24.67 24.67 0 002.762 2.762l-8.383 8.383zm9.769-9.769a22.5 22.5 0 01-2.763-2.762l1.386-1.385a20.592 20.592 0 002.762 2.762l-1.385 1.386zm14.44 1.353c-10.232 0-18.555-8.323-18.555-18.554 0-10.231 8.323-18.555 18.554-18.555 10.231 0 18.555 8.324 18.555 18.555 0 10.23-8.324 18.554-18.555 18.554z" fill="#FF4900"/><path d="M22.281 6.065a.977.977 0 00-1.334-.357 17.042 17.042 0 00-4.492 3.75.977.977 0 001.49 1.263A15.095 15.095 0 0121.924 7.4a.976.976 0 00.357-1.334zm7.211 19.325a2.933 2.933 0 00-2.93 2.93 2.933 2.933 0 002.93 2.93 2.933 2.933 0 002.93-2.93 2.933 2.933 0 00-2.93-2.93zm0 3.907a.978.978 0 010-1.953.978.978 0 010 1.953zm0-19.531a2.933 2.933 0 00-2.93 2.93v7.812a2.933 2.933 0 002.93 2.93 2.933 2.933 0 002.93-2.93v-7.813a2.933 2.933 0 00-2.93-2.93zm.977 10.742a.978.978 0 01-1.953 0v-7.813a.978.978 0 011.953 0v7.813z" fill="#FF4900"/></svg>
